src/images/social/linkedin.svg

<svg height="100" viewBox="0 0 100 100" width="100" xmlns="http://www.w3.org/2000/svg"><path d="m92.615894 0h-85.22713802c-4.08102056 0-7.38875598 3.20679442-7.38875598 7.16477804v85.66742156c0 3.958216 3.3088979 7.1678004 7.38875598 7.1678004h85.22713802c4.0800906 0 7.384106-3.2116769 7.384106-7.1678004v-85.66742156c0-3.95682114-3.3040154-7.16477804-7.384106-7.16477804zm-62.2987448 83.7067967h-15.1092852v-45.1487732h15.1092852zm-7.5531313-51.3168479h-.1016012c-5.0668081 0-8.3512938-3.4650957-8.3512938-7.8032076 0-4.4255296 3.380972-7.7966975 8.5482188-7.7966975 5.1677116 0 8.3464112 3.3702379 8.44685 7.7966975 0 4.3390419-3.2779759 7.8032076-8.5421738 7.8032076zm62.0176559 51.3168479h-15.104403v-24.1561617c0-6.0697298-2.1884945-10.211384-7.6507802-10.211384-4.1786691 0-6.6591802 2.7941171-7.7484287 5.4917488-.403615.9634567-.5035888 2.3109937-.5035888 3.656671v25.2181959h-15.1016127s.1976225-40.9141211 0-45.1485407h15.1039377v6.4008017c2.0050546-3.0756675 5.5880665-7.4630681 13.6089819-7.4630681 9.9415735 0 17.3958938 6.4491604 17.3958938 20.32326z" fill="#1b1b1b"/></svg>

<?xml version="1.0" encoding="UTF-8"?>
<svg width="100px" height="100px" viewBox="0 0 100 100" version="1.1" xmlns="http://www.w3.org/2000/svg" xmlns:xlink="http://www.w3.org/1999/xlink">
    <!-- Generator: Sketch 55.1 (78136) - https://sketchapp.com -->
    <title>linkedin</title>
    <desc>Created with Sketch.</desc>
    <g id="linkedin" stroke="none" stroke-width="1" fill="none" fill-rule="evenodd">
        <path d="M92.615894,0 L7.38875598,0 C3.30773542,0 0,3.20679442 0,7.16477804 L0,92.8321996 C0,96.7904156 3.3088979,100 7.38875598,100 L92.615894,100 C96.6959846,100 100,96.7883231 100,92.8321996 L100,7.16477804 C100,3.2079569 96.6959846,0 92.615894,0 Z M30.3171492,83.7067967 L15.207864,83.7067967 L15.207864,38.5580235 L30.3171492,38.5580235 L30.3171492,83.7067967 Z M22.7640179,32.3899488 L22.6624167,32.3899488 C17.5956086,32.3899488 14.3111229,28.9248531 14.3111229,24.5867412 C14.3111229,20.1612116 17.6920949,16.7900437 22.8593417,16.7900437 C28.0270533,16.7900437 31.2057529,20.1602816 31.3061917,24.5867412 C31.3061917,28.9257831 28.0282158,32.3899488 22.7640179,32.3899488 Z M84.7816738,83.7067967 L69.6772708,83.7067967 L69.6772708,59.550635 C69.6772708,53.4809052 67.4887763,49.339251 62.0264906,49.339251 C57.8478215,49.339251 55.3673104,52.1333681 54.2780619,54.8309998 C53.8744469,55.7944565 53.7744731,57.1419935 53.7744731,58.4876708 L53.7744731,83.7058667 L38.6728604,83.7058667 C38.6728604,83.7058667 38.8704829,42.7917456 38.6728604,38.557326 L53.7767981,38.557326 L53.7767981,44.9581277 C55.7818527,41.8824602 59.3648646,37.4950596 67.38578,37.4950596 C77.3273535,37.4950596 84.7816738,43.94422 84.7816738,57.8183196 L84.7816738,83.7067967 Z" fill="#1B1B1B" fill-rule="nonzero"></path>
    </g>
</svg>
